T: Dowd's Favourite
M: 4/4
L: 1/8
K: Ador
G|EAAB cBcG|EGG2 EGDG|EAAB cBce|dBgB BAA:|!B|c2ec gcec|c2ec dBGB|c2ec gcec|dBGB cAAB|!c2ec gcec|c2ec dBGB|cBAG Aaaf|gedB cAA|]!z|aee2 a2ba|gdd2 gdBd|aee2 a2ba|gedB cAA2|!aee2 a2ba|gdd2 gdBG|ABcd eaaf|gedB cAA|]!
